!!!COM: Music21
!!!OTL: Rumba do Lume Novo
!!!OMV: pezas_rumbas_rumba-do-lume-novo_rumba-do-lume-novo-partitura.musicxml
**kern
*I"Bagpipes
*I'Bag
*clefG^2
*k[]
*M2/4
=1
!LO:TX:a:t=Andante
*MM96
!LO:TX:a:t=[quarter]=96
8r
16eeLL
16ffJJ
16ggLL
16aa
16bb
16cccJJ
=||
8dddL
16dddL
16cccJJ
8bbL
16bbL
16aaJJ
=
8bbL
16bbL
16aaJJ
8ggL
16ggL
16ffJJ
=
16ggLL
16aa
16gg
16ffJJ
[4ee
=
8eeL]
16ccL
16ddJJ
16eeLL
16ff
16gg
16eeJJ
=
16ffLL
16ee
16dd
16ccJJ
8.bL
16ddJk
!!linebreak:original
=
16ffLL
16ee
16dd
16ccJJ
16bLL
16cc
16dd
16bJJ
=
[2cc
=
8ccL]
16eeL
16ffJJ
16ggLL
16aa
16bb
16cccJJ
=||
8dddL
16dddL
16cccJJ
8bbL
16bbL
16aaJJ
=
8bbL
16bbL
16aaJJ
8ggL
16ggL
16ffJJ
=
16ggLL
16aa
16gg
16ffJJ
[4ee
=
8eeL]
16ccL
16ddJJ
16eeLL
16ff
16gg
16eeJJ
!!linebreak:original
=
16ffLL
16ee
16dd
16ccJJ
8.bL
16ddJk
!!linebreak:original
=
16ffLL
16ee
16dd
16ccJJ
16bLL
16cc
16dd
16bJJ
=
[2cc
=
4cc_
8ccL]
8ggJ
=||
8ccL
8eeJ
8ggL
16aaL
16ggJJ
=
8aaL
[8ggJ
8ggL]
8ggJ
=
8ccL
8eeJ
8ggL
16aaL
16ggJJ
=
8aaL
[8ffJ
8ffL]
8ddJ
!!linebreak:original
=
8bL
8ddJ
8ffL
16aaL
16ggJJ
=
8bbL
[8aaJ
8aaL]
8ggJ
=
8aaL
8ggJ
8ffL
16eeL
16ffJJ
=
8aaL
[8ggJ
8ggL]
8ggJ
=||
8ccL
8eeJ
8ggL
16aaL
16ggJJ
=
8aaL
[8ggJ
8ggL]
8ggJ
=
8ccL
8eeJ
8ggL
16aaL
16ggJJ
=
8aaL
[8ffJ
8ffL]
8ddJ
!!linebreak:original
=
8bL
8ddJ
8ffL
16aaL
16ggJJ
=
8bbL
[8aaJ
8aaL]
8ggJ
=
8aaL
8ggJ
8ffL
16eeL
16ddJJ
=
2cc
=||
8ggL
8aaJ
8bbL
8aaJ
=
4gg
8ffL
8ddJ
=
4gg
8ffL
8ddJ
=
4aa
8ggL
8eeJ
=
4aa
8ggL
8eeJ
!!linebreak:original
=
4gg
8ffL
8ddJ
=
8.ggL
16eeJk
8ffL
8ddJ
=
4ff
4ee
=||
8ggL
8aaJ
8bbL
8aaJ
=
4gg
8ffL
8ddJ
=
4gg
8ffL
8ddJ
=
4aa
8ggL
8eeJ
=
4aa
8ggL
8eeJ
!!linebreak:original
=
4gg
8ffL
8ddJ
=
8.ggL
16eeJk
8ffL
8ddJ
=||
[2cc
=
8ccL]
16eeL
16ffJJ
16ggLL
16aa
16bb
16cccJJ
=||
2cc
=
8ccc
8r
4r
==
*-
